X:1
T: Karlsborgsvisan
R: Visa
Z: [[Profiles/TommyRådberg]]
M: 2/4
L: 1/16
K: G
D2 |"G" G2 G2 B2 d2 | G4 "D7" F2 D2 | "G" G2 G2 B2 d2 | "D" A4 z2 B2 | c2 c2 e2 e2 | "G" d4 B2 B2 | "D7" c2 c2 F2 F2 | "G" G2 D D E2 F2 | G6 B B | G6 D D | G G G G B2 d2 | "D7" A4 z2 B2 | c2 c2 e2 e2 | "G" d2 d2 B2 B2 | "D7" c2 c2 F2 F2 | "G" G6 |]

